X:3508
T:The Summer Assembly
P:The Oddfellows
C:J. Scott Skinner
R:Reel (1x88)
B:RSCDS 35-8
Z:Anselm Lingnau <anselm@strathspey.org>
M:2/4
L:1/16
K:A
|:ED|"A"CEA2 A2cA|"D"B2A2 "A"A2ED|CEAc "F#m"fecA|"Bm"c2B2 "E7"B2ED|
     "A"CEA2 A2cA|"D"BAAF "A"E2A2|"D"F2EC "A"EFAE|"D"[F2D2][A2D2]"A"[A2C2]:|
cd|"A"ecA2 "D"fdA2|"A"ecA2 a2cA|CEAc "F#m"fecA|"Bm"c2B2 "E7"B2 cd|
   "A"ecA2 "D"fdA2|"A"ecA2 a2cA|CEAc "F#m"fecA|"E7"B2A2 "A"A2 cd|
   "A"ecA2 "D"fdA2|"A"ecA2 a2cA|CEAc "F#m"fecA|"Bm"c2B2 "E7"B2 ED|
   "A"CEA2 A2cA|"D"BAAF "A"E2A2|"D"F2EC "A"EFAE|"D"[F2D2][A2D2]"A"[A2C2]|]
K:D
|:B|"D"A2F2 {f}d3A|"G"B2d2 "D"A3F|"F#m"A2Bc "Bm"d2A2|"Em"B2"E7"e2 "A7"e3f|
  "D"A2F2 {f}d3A|"G"B2d2 "D"A2d2|"Em"edcB "D"A2FA|"G"[B2G2][d2B2G2]"D"[d2A2F2]:|
|:f2|"D"edcB A2FA|"G"B2d2 "D"A2f2|"Em"edcB "D"A2FA|"Em"B2"E7"e2 "A7"e2f2|
     "D"edcB A2FA|"G"B2d2 "D"A2d2|"Em"edcB "D"A2FA|"G"[B2G2][d2B2G2]"D"[d2A2F2]:|
